build/img/cart-green1.svg

<svg width="21" height="18" viewBox="0 0 21 18" fill="none" xmlns="http://www.w3.org/2000/svg">
<path d="M20.1884 6.85716H16.6377L13.1884 0.380944C12.9855 -8.61287e-06 12.5797 -0.0952351 12.1739 0.0952412C11.7681 0.285717 11.6667 0.66667 11.8696 1.04762L15.0145 6.85716H5.7826L8.92753 1.04762C9.13043 0.66667 8.92754 0.285717 8.6232 0.0952412C8.2174 -0.0952351 7.8116 0.0952295 7.6087 0.380944L4.1594 6.85716H0.811583C0.405785 6.85716 0 7.14286 0 7.61905C0 8 0.304336 8.38094 0.811583 8.38094H1.01449L1.92753 11.2381C1.72463 11.3333 1.62317 11.5238 1.62317 11.8095C1.62317 12.1905 1.92753 12.4762 2.33332 12.4762L4.05797 18H16.942L18.6667 12.4762C19.0725 12.4762 19.3768 12.1905 19.3768 11.8095C19.3768 11.619 19.2754 11.3333 19.0725 11.2381L19.9855 8.38094H20.1884C20.5942 8.38094 21 8.09524 21 7.61905C21 7.14286 20.5942 6.85716 20.1884 6.85716ZM15.6232 16.4762H5.07247L3.85506 12.381H16.942L15.6232 16.4762ZM17.2464 10.9524H3.34782L2.53623 8.28573H18.058L17.2464 10.9524Z" fill="#63D1BB"/>
</svg>

<svg width="21" height="18" fill="none" xmlns="http://www.w3.org/2000/svg"><path d="M20.188 6.857h-3.55L13.188.381C12.985 0 12.58-.095 12.174.095s-.507.572-.304.953l3.145 5.81H5.783l3.145-5.81c.202-.381 0-.762-.305-.953-.406-.19-.811 0-1.014.286l-3.45 6.476H.812c-.406 0-.812.286-.812.762 0 .381.304.762.812.762h.202l.914 2.857c-.203.095-.305.286-.305.572 0 .38.305.666.71.666L4.058 18h12.884l1.725-5.524c.405 0 .71-.286.71-.667 0-.19-.102-.476-.304-.57l.912-2.858h.203c.406 0 .812-.286.812-.762 0-.476-.406-.762-.812-.762zm-4.565 9.62H5.073L3.854 12.38h13.087l-1.319 4.095zm1.623-5.525H3.348l-.812-2.666h15.522l-.812 2.666z" fill="#63D1BB"/></svg>
